public/new/vuesaxboldedit1.svg

<svg fill="none" height="20" viewBox="0 0 20 20" width="20" xmlns="http://www.w3.org/2000/svg"><path d="m13.492 1.66699h-6.98334c-3.03333 0-4.84167 1.80834-4.84167 4.84167v6.97504c0 3.0416 1.80834 4.85 4.84167 4.85h6.97504c3.0333 0 4.8416-1.8084 4.8416-4.8417v-6.98334c.0084-3.03333-1.8-4.84167-4.8333-4.84167zm-4.36667 12.92501c-.24167.2417-.7.475-1.03334.525l-2.05.2917c-.075.0083-.15.0166-.225.0166-.34166 0-.65833-.1166-.88333-.3416-.275-.275-.39167-.675-.325-1.1167l.29167-2.05c.05-.3417.275-.7917.525-1.0333l3.71666-3.71671c.06667.175.13334.35.225.55.08334.175.175.35834.275.525.08333.14167.175.275.25.375.09167.14167.20001.275.26671.35.0416.05834.075.1.0916.11667.2084.25.45.48333.6584.65833.0583.05834.0916.09167.1083.1.125.1.25.20001.3583.27501.1334.1.2667.1917.4084.2667.1666.1.35.1916.5333.2833.1917.0833.3667.1583.5417.2167zm5.34997-5.35001-.7666.77501c-.05.05-.1167.075-.1834.075-.025 0-.0583 0-.075-.0083-1.6916-.48337-3.0416-1.83337-3.52497-3.52504-.02501-.09167 0-.19167.06666-.25l.77501-.775c1.2667-1.26667 2.475-1.24167 3.7167 0 .6333.63333.9416 1.24167.9416 1.875-.0083.6-.3166 1.2-.95 1.83333z" fill="#fff" opacity=".5"/></svg>

<svg width="20" height="20" viewBox="0 0 20 20" fill="none" xmlns="http://www.w3.org/2000/svg">
<g opacity="0.5">
<path d="M13.492 1.66699H6.50866C3.47533 1.66699 1.66699 3.47533 1.66699 6.50866V13.4837C1.66699 16.5253 3.47533 18.3337 6.50866 18.3337H13.4837C16.517 18.3337 18.3253 16.5253 18.3253 13.492V6.50866C18.3337 3.47533 16.5253 1.66699 13.492 1.66699ZM9.12533 14.592C8.88366 14.8337 8.42533 15.067 8.09199 15.117L6.04199 15.4087C5.96699 15.417 5.89199 15.4253 5.81699 15.4253C5.47533 15.4253 5.15866 15.3087 4.93366 15.0837C4.65866 14.8087 4.54199 14.4087 4.60866 13.967L4.90033 11.917C4.95033 11.5753 5.17533 11.1253 5.42533 10.8837L9.14199 7.16699C9.20866 7.34199 9.27533 7.51699 9.36699 7.71699C9.45033 7.89199 9.54199 8.07533 9.64199 8.24199C9.72532 8.38366 9.81699 8.51699 9.89199 8.61699C9.98366 8.75866 10.092 8.89199 10.1587 8.96699C10.2003 9.02533 10.2337 9.06699 10.2503 9.08366C10.4587 9.33366 10.7003 9.56699 10.9087 9.74199C10.967 9.80033 11.0003 9.83366 11.017 9.84199C11.142 9.94199 11.267 10.042 11.3753 10.117C11.5087 10.217 11.642 10.3087 11.7837 10.3837C11.9503 10.4837 12.1337 10.5753 12.317 10.667C12.5087 10.7503 12.6837 10.8253 12.8587 10.8837L9.12533 14.592ZM14.4753 9.24199L13.7087 10.017C13.6587 10.067 13.592 10.092 13.5253 10.092C13.5003 10.092 13.467 10.092 13.4503 10.0837C11.7587 9.60033 10.4087 8.25033 9.92533 6.55866C9.90032 6.46699 9.92533 6.36699 9.99199 6.30866L10.767 5.53366C12.0337 4.26699 13.242 4.29199 14.4837 5.53366C15.117 6.16699 15.4253 6.77533 15.4253 7.40866C15.417 8.00866 15.1087 8.60866 14.4753 9.24199Z" fill="white"/>
</g>
</svg>
